X:1
T: Dennis Murphy's Jig
C:
R:Jig
Q:180
K:D
M:6/8
L:1/16
B2|A4D2 F2E2D2|F4A2 A4f2|g4e2 f4d2|e4d2 B2c2d2|A4D2 F2E2D2|F4A2 A4f2|a4f2 e2f2e2|d6 d4A2|
A4D2 F2E2D2|F4A2 A4f2|g4e2 f4d2|e4d2 B2c2d2|A4D2 F2E2D2|F4A2 A4f2|a4f2 e2f2e2|d6 d4A2|
d4e2 f4f2|g2f2e2 f4f2|g2f2e2 f4d2|e4d2 B4A2|d4e2 f4f2|g2f2e2 f4g2|a4A2 e2f2e2|d6 d4A2|
d4e2 f4f2|g2f2e2 f4f2|g2f2e2 f4d2|e4d2 B4A2|d4e2 f4f2|g2f2e2 f4g2|a4A2 e2f2e2|d6 d4||
